Sources/FrostedUI/Resources/Icons.xcassets/arrowUpRightFromSquare32.imageset/arrow-up-right-from-square-32.svg

<svg width="32" height="32" viewBox="0 0 32 32" fill="none" xmlns="http://www.w3.org/2000/svg" data-fui-icon="true">
  <path
    d="M12.333 6.91699C12.7472 6.91699 13.083 7.25278 13.083 7.66699C13.0828 8.08106 12.7471 8.41699 12.333 8.41699H9.16699C8.45581 8.41699 7.96419 8.41699 7.58203 8.44629C7.20828 8.47495 7.00091 8.52818 6.84766 8.60059C6.44679 8.79019 6.12319 9.1128 5.93359 9.51367C5.86108 9.66699 5.80896 9.87484 5.78027 10.249C5.75099 10.6311 5.75 11.1221 5.75 11.833V22.7334C5.75 23.4925 5.75092 24.0168 5.78418 24.4238C5.81671 24.8219 5.87659 25.0413 5.95898 25.2031C6.14275 25.5638 6.43631 25.8573 6.79688 26.041C6.95869 26.1234 7.17817 26.1833 7.57617 26.2158C7.98321 26.2491 8.50753 26.25 9.2666 26.25H20.0664C20.8254 26.25 21.3498 26.2491 21.7568 26.2158C22.1551 26.1833 22.3753 26.1235 22.5371 26.041C22.8976 25.8573 23.1904 25.5636 23.374 25.2031C23.4565 25.0413 23.5173 24.822 23.5498 24.4238C23.5831 24.0168 23.583 23.4925 23.583 22.7334V18.667C23.583 18.2529 23.9189 17.9172 24.333 17.917C24.7472 17.917 25.083 18.2528 25.083 18.667V22.7334C25.083 23.4677 25.0843 24.0636 25.0449 24.5459C25.0098 24.9755 24.9395 25.3651 24.7832 25.7295L24.7109 25.8848C24.3834 26.5275 23.8606 27.0505 23.2178 27.3779C22.8093 27.5861 22.3699 27.6708 21.8789 27.7109C21.3967 27.7503 20.8006 27.75 20.0664 27.75H9.2666C8.53227 27.75 7.93639 27.7503 7.4541 27.7109C6.96306 27.6708 6.52379 27.5861 6.11523 27.3779C5.47236 27.0504 4.94959 26.5275 4.62207 25.8848C4.41389 25.4762 4.32918 25.0369 4.28906 24.5459C4.24966 24.0636 4.25 23.4677 4.25 22.7334V11.833C4.25 11.1451 4.24947 10.5865 4.28418 10.1338C4.31951 9.67322 4.39467 9.25995 4.57812 8.87207C4.91612 8.15768 5.49161 7.58303 6.20605 7.24512C6.59406 7.06161 7.00703 6.98649 7.46777 6.95117C7.92053 6.91648 8.47906 6.91699 9.16699 6.91699H12.333ZM27 4.25C27.4142 4.25 27.75 4.58579 27.75 5V13.667C27.7498 14.0811 27.4141 14.417 27 14.417C26.5859 14.417 26.2502 14.0811 26.25 13.667V6.81055L15.1973 17.8633C14.9044 18.1562 14.4296 18.1562 14.1367 17.8633C13.8438 17.5704 13.8438 17.0956 14.1367 16.8027L25.1895 5.75H18.333C17.9189 5.74982 17.583 5.4141 17.583 5C17.583 4.5859 17.9189 4.25018 18.333 4.25H27Z"
    fill="currentColor"
  />
</svg>

<svg xmlns="http://www.w3.org/2000/svg" width="32" height="32" fill="none" data-fui-icon="true" viewBox="0 0 32 32"><path fill="currentColor" d="M12.333 6.917a.75.75 0 0 1 0 1.5H9.167c-.711 0-1.203 0-1.585.03-.374.028-.581.081-.734.154-.401.19-.725.512-.914.913-.073.153-.125.36-.154.735-.029.382-.03.873-.03 1.584v10.9c0 .76 0 1.284.034 1.69.033.399.093.618.175.78.184.36.477.654.838.838.162.082.381.142.78.175.406.033.93.034 1.69.034h10.8c.758 0 1.283 0 1.69-.034.398-.033.618-.093.78-.175.36-.184.653-.477.837-.838.082-.162.143-.381.176-.78.033-.406.033-.93.033-1.69v-4.066a.75.75 0 0 1 1.5 0v4.066c0 .735.001 1.33-.038 1.813-.035.43-.106.82-.262 1.184l-.072.155a3.4 3.4 0 0 1-1.493 1.493c-.409.208-.848.293-1.34.333-.481.04-1.077.039-1.812.039h-10.8c-.734 0-1.33 0-1.812-.04-.49-.04-.93-.124-1.339-.332a3.4 3.4 0 0 1-1.493-1.493c-.208-.409-.293-.848-.333-1.34-.04-.481-.039-1.077-.039-1.812v-10.9c0-.688 0-1.247.034-1.7.036-.46.11-.873.294-1.26a3.4 3.4 0 0 1 1.628-1.628c.388-.183.801-.259 1.262-.294.453-.035 1.011-.034 1.699-.034zM27 4.25a.75.75 0 0 1 .75.75v8.667a.75.75 0 0 1-1.5 0V6.811L15.197 17.863a.75.75 0 1 1-1.06-1.06L25.189 5.75h-6.856a.75.75 0 0 1 0-1.5z"/></svg>
